icons/svgs/upload-outline.svg

<svg width="24" height="24" viewBox="0 0 24 24" fill="none" xmlns="http://www.w3.org/2000/svg">
<path d="M12.9375 16.0625C12.9375 16.6094 12.5078 17 12 17C11.4531 17 11.0625 16.6094 11.0625 16.0625V5.20312L7.35156 8.91406C6.96094 9.30469 6.375 9.30469 6.02344 8.91406C5.63281 8.5625 5.63281 7.97656 6.02344 7.58594L11.3359 2.27344C11.6875 1.92188 12.2734 1.92188 12.625 2.27344L17.9766 7.58594C18.3281 7.97656 18.3281 8.5625 17.9766 8.91406C17.5859 9.30469 17 9.30469 16.6484 8.91406L12.9375 5.20312V16.0625ZM14.1875 15.75V13.875H19.5C20.8672 13.875 22 15.0078 22 16.375V19.5C22 20.9062 20.8672 22 19.5 22H4.5C3.09375 22 2 20.9062 2 19.5V16.375C2 15.0078 3.09375 13.875 4.5 13.875H9.8125V15.75H4.5C4.14844 15.75 3.875 16.0625 3.875 16.375V19.5C3.875 19.8516 4.14844 20.125 4.5 20.125H19.5C19.8125 20.125 20.125 19.8516 20.125 19.5V16.375C20.125 16.0625 19.8125 15.75 19.5 15.75H14.1875ZM17 17.9375C17 17.4297 17.3906 17 17.9375 17C18.4453 17 18.875 17.4297 18.875 17.9375C18.875 18.4844 18.4453 18.875 17.9375 18.875C17.3906 18.875 17 18.4844 17 17.9375Z" fill="black"/>
</svg>

<svg xmlns="http://www.w3.org/2000/svg" width="24" height="24" fill="currentColor" class="icon-upload-outline" viewBox="0 0 24 24">
  <mask id="a" width="20" height="20" x="2" y="2" maskUnits="userSpaceOnUse" style="mask-type:alpha">
    <path d="M12.938 16.063c0 .546-.43.937-.938.937-.547 0-.937-.39-.937-.937V5.203L7.352 8.914c-.391.39-.977.39-1.329 0-.39-.351-.39-.937 0-1.328l5.313-5.313a.92.92 0 0 1 1.289 0l5.352 5.313c.351.39.351.976 0 1.328-.391.39-.977.39-1.329 0l-3.71-3.71zm1.25-.313v-1.875H19.5c1.367 0 2.5 1.133 2.5 2.5V19.5c0 1.406-1.133 2.5-2.5 2.5h-15A2.47 2.47 0 0 1 2 19.5v-3.125c0-1.367 1.094-2.5 2.5-2.5h5.313v1.875H4.5a.64.64 0 0 0-.625.625V19.5c0 .352.273.625.625.625h15a.64.64 0 0 0 .625-.625v-3.125c0-.312-.312-.625-.625-.625zM17 17.938c0-.508.39-.938.938-.938a.95.95 0 0 1 .937.938c0 .546-.43.937-.937.937-.547 0-.938-.39-.938-.937"/>
  </mask>
  <g mask="url(#a)">
    <path d="M0 0h24v24H0z"/>
  </g>
</svg>
